!!!!SEGMENT:Okuyama.krn
!!!OTL: 奥山
!!!OPR:Eiga Banso Kyokusyu,jidai-geki,kouhen
!!!YOY:1928
!!!ONB:Sanrin
**kern
*clefG2
*k[f#]
*G:
*M2/4
=1
4B
4gg
=2
4ff#
4ee
=3
4cc
4b
=4
4a
4a
=5
4b
4a
=6
4b
4ee
=7
4cc
4b
=8
4g
8bL
8bJ
=9
4g
8f#L
8eJ
=10
4f#
8f#L
8aJ
=11
8bL
8b
8cc
8bJ
=12
4g
4f#
=13
8gL
8g
8f#
8eJ
=14
4f#
4r
=15!|:
8b
4b
8g
=16
8f#L
8f#
8g
8f#J
=17
8BL
(8e
8f#)
8eJ
=18
4f#
4r
=:|!
*-
!!!ENC: Yukiko Yoden
!!!END: 2023/06/11
